icons/bluemix.svg

<?xml version="1.0" encoding="UTF-8" standalone="no"?>
<svg width="256px" height="253px" viewBox="0 0 256 253" version="1.1" xmlns="http://www.w3.org/2000/svg" xmlns:xlink="http://www.w3.org/1999/xlink" preserveAspectRatio="xMidYMid">
	<g>
		<polygon fill="#00B198" points="217.7773 126.4132 253.6883 64.2132 217.7773 2.0142 145.9553 2.0142 110.0443 64.2132 145.9553 126.4132"></polygon>
		<polygon fill="#00AED1" points="110.0446 188.6128 145.9556 250.8128 217.7776 250.8128 253.6886 188.6128 217.7776 126.4128 145.9556 126.4128"></polygon>
		<polygon fill="#3B4B54" points="110.0445 64.2137 38.2225 64.2137 2.3115 126.4137 38.2225 188.6127 110.0445 188.6127 145.9555 126.4137"></polygon>
		<path d="M216.6102,248.8085 L147.1222,248.8085 L113.4162,190.4475 C123.1852,195.4215 134.2422,198.2265 145.9552,198.2265 C184.3222,198.2265 215.6602,168.1435 217.6722,130.2785 L251.3762,188.6125 L216.6102,248.8085 Z M4.6232,126.4045 L39.3902,66.2315 L106.7372,66.2315 C87.1082,79.0515 74.1332,101.2115 74.1332,126.4045 C74.1332,151.6135 87.1232,173.7845 106.7712,186.6005 L39.3902,186.6005 L4.6232,126.4045 Z M147.1222,4.0405 L216.6102,4.0405 L251.3762,64.2135 L217.6752,122.5665 C215.6792,84.6845 184.3332,54.5835 145.9552,54.5835 C134.2482,54.5835 123.1952,57.3865 113.4302,62.3545 C115.4472,58.8635 147.1222,4.0405 147.1222,4.0405 L147.1222,4.0405 Z M213.6572,130.1185 C211.7282,165.8355 182.1532,194.2095 145.9552,194.2095 C134.9282,194.2095 124.5172,191.5735 115.3132,186.9025 L213.6572,130.1185 Z M108.8772,183.1755 C90.3772,171.0665 78.1512,150.1635 78.1512,126.4045 C78.1512,102.6455 90.3772,81.7515 108.8772,69.6505 L108.8772,183.1755 Z M115.3292,65.9165 C124.5292,61.2535 134.9352,58.6225 145.9552,58.6225 C182.1532,58.6225 211.7282,86.9755 213.6572,122.6915 L115.3292,65.9165 Z M122.7092,170.6945 L147.1222,128.4395 L208.5302,128.4395 L116.3922,181.6415 L122.7092,170.6945 Z M125.2562,94.5795 L143.6262,126.4135 L128.6802,152.3135 L112.8952,179.6445 L112.8952,73.1855 L125.2562,94.5795 Z M147.1172,124.3995 L138.9332,110.2295 L116.4112,71.2015 L208.5802,124.3995 L147.1172,124.3995 Z M256.0002,64.2135 L218.9442,0.0005 L144.7882,0.0005 L108.8992,62.1915 L37.0552,62.1915 L0.0002,126.4045 L37.0552,190.6185 L108.8902,190.6185 L144.7882,252.8265 L218.9442,252.8265 L256.0002,188.6125 L220.1062,126.4135 L256.0002,64.2135 Z" fill="#FFFFFF"></path>
	</g>
</svg>

<svg xmlns="http://www.w3.org/2000/svg" viewBox="0 0 256 252.826">
  <path fill="#00b198" d="M217.777 2.014h-71.822l-35.91 62.199 35.91 62.2h71.822l35.911-62.2z"/>
  <path fill="#00aed1" d="m217.777 250.812 35.911-62.2-35.91-62.2h-71.823l-35.91 62.2 35.91 62.2z"/>
  <path fill="#3b4b54" d="m2.311 126.413 35.911 62.2h71.822l35.911-62.2-35.91-62.2H38.221z"/>
  <path fill="#fff" d="M216.61 248.808h-69.488l-33.706-58.361c9.769 4.974 20.826 7.779 32.539 7.779 38.367 0 69.705-30.083 71.717-67.948l33.704 58.334zM4.623 126.404 39.39 66.231h67.347c-19.629 12.82-32.604 34.98-32.604 60.173 0 25.209 12.99 47.38 32.638 60.196H39.39zM147.122 4.04h69.488l34.766 60.173-33.701 58.353c-1.996-37.882-33.342-67.983-71.72-67.983-11.707 0-22.76 2.803-32.525 7.771L147.122 4.04zm66.535 126.078c-1.929 35.717-31.504 64.091-67.702 64.091-11.027 0-21.438-2.636-30.642-7.307zm-104.78 53.057c-18.5-12.109-30.726-33.012-30.726-56.771s12.226-44.653 30.726-56.754zm6.452-117.259c9.2-4.663 19.606-7.294 30.626-7.294 36.198 0 65.773 28.353 67.702 64.069zm7.38 104.778 24.413-42.255h61.408l-92.138 53.202zm2.547-76.115 18.37 31.834-14.946 25.9-15.785 27.331-6.333-106.459zm21.861 29.82-8.184-14.17-22.522-39.028 92.169 53.198zM256 64.213 218.944 0h-74.156l-35.889 62.191H37.055L0 126.404l37.055 64.214h71.835l35.898 62.208h74.156L256 188.612l-35.894-62.199z"/>
</svg>
